svgs/solid/circle-parking.svg

<svg xmlns="http://www.w3.org/2000/svg" viewBox="0 0 512 512"><!--! Font Awesome Pro 6.2.0 by @fontawesome - https://fontawesome.com License - https://fontawesome.com/license (Commercial License) Copyright 2022 Fonticons, Inc. --><path d="M448 256c0-106-86-192-192-192S64 150 64 256s86 192 192 192s192-86 192-192zm64 0c0 141.4-114.6 256-256 256S0 397.4 0 256S114.6 0 256 0S512 114.6 512 256zm-280 0h48c17.7 0 32-14.3 32-32s-14.3-32-32-32H232v64zm48 64H232v32c0 17.7-14.3 32-32 32s-32-14.3-32-32V288 168c0-22.1 17.9-40 40-40h72c53 0 96 43 96 96s-43 96-96 96z"/></svg>

<svg xmlns="http://www.w3.org/2000/svg" viewBox="0 0 512 512"><!--! Font Awesome Pro 6.1.2 by @fontawesome - https://fontawesome.com License - https://fontawesome.com/license (Commercial License) Copyright 2022 Fonticons, Inc. --><path d="M280 320H232V352C232 369.7 217.7 384 200 384C182.3 384 168 369.7 168 352V168C168 145.9 185.9 128 208 128H280C333 128 376 170.1 376 224C376 277 333 320 280 320zM280 256C297.7 256 312 241.7 312 224C312 206.3 297.7 192 280 192H232V256H280zM512 256C512 397.4 397.4 512 256 512C114.6 512 0 397.4 0 256C0 114.6 114.6 0 256 0C397.4 0 512 114.6 512 256zM256 64C149.1 64 64 149.1 64 256C64 362 149.1 448 256 448C362 448 448 362 448 256C448 149.1 362 64 256 64z"/></svg>
